dist/assets/images/main/advantages2.svg

<svg width="60" height="60" viewBox="0 0 60 60" fill="none" xmlns="http://www.w3.org/2000/svg">
<path fill-rule="evenodd" clip-rule="evenodd" d="M8.5611 2.08091C8.42105 2.13728 8.22051 2.3397 8.11545 2.53077C6.62364 5.24497 5.65335 6.37263 3.96177 7.35836C2.41426 8.26008 2.18341 8.42307 2.05506 8.70482C1.8602 9.13251 2.14442 9.42439 3.52548 10.2148C5.5162 11.3543 6.56236 12.4499 7.74522 14.6344C8.61145 16.2341 9.03348 16.2465 9.88545 14.6969C11.247 12.2206 12.2537 11.2072 14.6092 9.94232C15.4996 9.46417 15.6676 9.29048 15.6676 8.8482C15.6676 8.59374 15.5708 8.47409 15.1666 8.22889C14.891 8.06178 14.2081 7.64924 13.6491 7.31223C11.9514 6.28885 11.0434 5.25321 9.71744 2.82811C9.49128 2.41446 9.26266 2.07611 9.2094 2.07611C9.15615 2.07611 9.04574 2.05417 8.96419 2.02743C8.88252 2.00058 8.70114 2.02464 8.5611 2.08091ZM29.5659 2.07868C27.8807 2.50403 26.6253 4.00479 26.5015 5.74207C26.3729 7.54474 27.4761 9.19345 29.2042 9.78112L29.7613 9.97062V10.7852V11.5997L28.6818 11.7843C27.3183 12.0175 26.6708 12.2272 25.4162 12.842C22.4901 14.276 20.3363 16.9263 19.4315 20.2061C19.1077 21.3801 19.0757 24.3304 19.3737 25.5562C20.3509 29.5772 23.2429 32.6656 27.1739 33.8859L28.1516 34.1893L27.609 34.763C26.7445 35.6771 26.355 37.1272 26.6484 38.339C26.7903 38.9248 27.2484 39.7255 27.7002 40.1772C28.1413 40.6183 29.1064 41.1799 29.4234 41.1799C29.5173 41.1799 29.5942 41.236 29.5942 41.3047C29.5942 41.3732 29.223 42.213 28.7692 43.1707C26.1755 48.645 24.9941 51.8882 24.9896 53.546C24.9832 56.0092 26.7273 58.188 29.2269 58.8391C32.5225 59.6975 35.9643 57.0036 35.9643 53.5655C35.9643 52.4585 35.5752 51.0837 34.4926 48.3656C33.9004 46.8787 32.438 43.6258 31.7243 42.2078C31.3086 41.3822 31.2809 41.2793 31.4578 41.2192C32.6898 40.8012 33.565 40.0705 34.0402 39.0632C34.288 38.5378 34.3292 38.2995 34.3292 37.3921C34.3292 36.1529 34.1042 35.5643 33.3015 34.7043L32.8206 34.189L33.7959 33.8849C37.6501 32.6832 40.5192 29.691 41.5274 25.8212C41.82 24.6985 41.9274 22.4243 41.7424 21.2695C40.9485 16.3152 37.0257 12.4447 32.0998 11.7557L31.1453 11.6221L31.1775 10.796L31.2097 9.96995L31.7667 9.78078C33.0298 9.35198 34.0881 8.2153 34.388 6.96498C34.8252 5.14281 33.8428 3.1337 32.1333 2.35407C31.4219 2.02955 30.256 1.90455 29.5659 2.07868ZM31.3011 3.53242C31.8449 3.68349 32.5791 4.34391 32.8401 4.91699C32.9578 5.17545 33.0431 5.61996 33.0431 5.97535C33.0431 7.435 31.9452 8.53281 30.4855 8.53281C29.0258 8.53281 27.9279 7.435 27.9279 5.97535C27.9279 4.21446 29.5436 3.04446 31.3011 3.53242ZM9.55411 5.36005C10.2323 6.41641 11.4411 7.61158 12.5526 8.32447C13.0456 8.64076 13.4337 8.91471 13.4151 8.93342C13.3964 8.95203 12.9892 9.22319 12.51 9.53602C11.3724 10.2787 10.1728 11.489 9.43546 12.6385C9.11014 13.1456 8.83038 13.5459 8.81389 13.528C8.79729 13.51 8.48133 13.0441 8.11155 12.4926C7.28242 11.2561 6.31413 10.2927 5.11233 9.50862L4.19418 8.90958L5.05662 8.36703C6.18991 7.65425 7.67492 6.14369 8.31443 5.05335C8.72365 4.35561 8.83629 4.2315 8.9272 4.37778C8.98847 4.47637 9.27057 4.91832 9.55411 5.36005ZM45.3382 6.06292C45.1081 6.20908 44.9691 6.74562 44.9691 7.48658V8.20349H44.0859C43.2645 8.20349 43.1865 8.22399 42.9718 8.49704C42.6725 8.87739 42.6807 9.04472 43.0144 9.37827C43.2557 9.61969 43.3851 9.65177 44.1167 9.65177H44.9455L44.9855 10.5317C45.0295 11.502 45.2327 11.8799 45.7105 11.8799C46.2297 11.8799 46.4174 11.525 46.4174 10.543V9.65177H47.2839C48.3386 9.65177 48.6457 9.48856 48.6457 8.92763C48.6457 8.3667 48.3386 8.20349 47.2839 8.20349H46.4174V7.2738C46.4174 6.51456 46.3801 6.31024 46.2137 6.15973C46.0008 5.96711 45.5647 5.91887 45.3382 6.06292ZM29.817 14.9386V16.7717L29.3992 16.8474C28.217 17.0616 26.5979 17.9576 25.8821 18.7936C25.6755 19.0351 25.4787 19.2328 25.4452 19.2328C25.4115 19.2328 24.6767 18.8276 23.8121 18.3325L22.2402 17.4321L22.6026 16.9265C22.9948 16.3796 24.0276 15.3834 24.7456 14.8595C25.9542 13.9776 28.201 13.1449 29.4549 13.1142L29.817 13.1054V14.9386ZM32.532 13.2714C34.8907 13.7712 37.0566 15.1458 38.4393 17.021L38.739 17.4274L37.163 18.33C36.2962 18.8266 35.5594 19.2328 35.5258 19.2328C35.4922 19.2328 35.2955 19.0351 35.0888 18.7936C34.3731 17.9576 32.7539 17.0616 31.5718 16.8474L31.154 16.7717V14.9386V13.1054L31.4603 13.1073C31.6288 13.1084 32.1111 13.1823 32.532 13.2714ZM31.9561 18.4414C34.7462 19.4013 36.0604 22.4396 34.8085 25.0357C34.18 26.3391 33.2202 27.1653 31.8386 27.5923C30.1517 28.1135 28.2942 27.6175 26.9911 26.2975C26.7544 26.0576 26.3815 25.4899 26.1625 25.0357C24.9203 22.4599 26.2125 19.4302 28.9721 18.448C29.7565 18.1688 31.1547 18.1657 31.9561 18.4414ZM23.1206 19.5758C23.9849 20.0709 24.692 20.489 24.692 20.5049C24.692 20.521 24.5918 20.926 24.4692 21.4052C24.2035 22.4441 24.1868 23.4994 24.4216 24.4132C24.5162 24.7808 24.6192 25.1819 24.6505 25.3045C24.6986 25.4931 24.4626 25.6673 23.1175 26.436L21.5275 27.3446L21.3167 26.8815C21.2008 26.6268 20.984 25.9433 20.8351 25.3625C20.5295 24.1713 20.4653 22.4289 20.6829 21.2292C20.7933 20.62 21.4274 18.6757 21.5156 18.6757C21.5339 18.6757 22.2561 19.0808 23.1206 19.5758ZM39.8258 19.6072C40.2753 20.849 40.414 21.6816 40.4101 23.1131C40.4067 24.3663 40.0976 25.9075 39.6543 26.8815L39.4435 27.3446L37.8535 26.436C36.5083 25.6673 36.2723 25.4931 36.3205 25.3045C36.3518 25.1819 36.4547 24.7808 36.5493 24.4132C36.7842 23.4993 36.7675 22.4441 36.5016 21.4046C36.379 20.9251 36.3079 20.5035 36.3438 20.4677C36.4368 20.3746 39.3281 18.6973 39.4157 18.6855C39.456 18.6802 39.6405 19.0948 39.8258 19.6072ZM53.2693 19.4773C52.9189 19.6759 52.8829 19.7903 52.881 20.7089L52.8794 21.5723H52.1624C51.4214 21.5723 50.8849 21.7113 50.7387 21.9414C50.5866 22.1805 50.6473 22.6484 50.8549 22.8362C51.0094 22.9761 51.2783 23.0206 51.969 23.0206H52.8794V23.9503C52.8794 24.9827 53.0412 25.2766 53.6098 25.2766C54.1224 25.2766 54.268 25.0042 54.3113 23.9636L54.3506 23.0206H55.2305C55.9618 23.0206 56.148 22.9829 56.3331 22.7978C56.6106 22.5204 56.6165 22.2288 56.3515 21.9015C56.1777 21.6869 56.0122 21.6411 55.2485 21.5969L54.3501 21.545L54.3097 20.6564C54.2747 19.885 54.2349 19.74 54.0076 19.5561C53.7083 19.3136 53.5817 19.3002 53.2693 19.4773ZM11.7189 21.9314C11.598 22.1039 11.5454 22.4415 11.5454 23.0454V23.9118H10.6157C9.59099 23.9118 9.31714 24.0569 9.31714 24.5997C9.31714 25.0965 9.68435 25.2992 10.6655 25.3438L11.5454 25.3837V26.2125C11.5454 26.944 11.5775 27.0735 11.8189 27.3148C11.9693 27.4652 12.1721 27.5883 12.2696 27.5883C12.3671 27.5883 12.5698 27.4652 12.7202 27.3148C12.9617 27.0735 12.9937 26.944 12.9937 26.2125V25.3837L13.8737 25.3438C14.865 25.2987 15.222 25.0967 15.222 24.5803C15.222 24.0625 14.9251 23.9118 13.9041 23.9118H12.9937V23.0454C12.9937 21.9907 12.8305 21.6837 12.2696 21.6837C12.006 21.6837 11.84 21.7583 11.7189 21.9314ZM26.255 27.5201C27.0548 28.2745 28.0482 28.8316 28.9814 29.0487C29.2878 29.12 29.6012 29.195 29.6777 29.2154C29.7821 29.2431 29.817 29.7168 29.817 31.1045V32.9567L29.2321 32.8812C26.7401 32.5596 24.1859 31.1352 22.7464 29.2647L22.2358 28.6012L23.3247 27.9667C23.9235 27.6178 24.6141 27.2148 24.8592 27.0713C25.1043 26.928 25.3488 26.8101 25.4026 26.8094C25.4566 26.8089 25.84 27.1287 26.255 27.5201ZM36.1577 27.1024C36.4388 27.2641 37.1338 27.6675 37.702 27.9988L38.7351 28.6012L38.2245 29.2647C36.7851 31.1352 34.2308 32.5596 31.7389 32.8812L31.154 32.9567V31.1045C31.154 29.7168 31.1888 29.2431 31.2932 29.2154C31.3699 29.195 31.6832 29.12 31.9895 29.0487C32.9306 28.8297 33.9195 28.2739 34.7046 27.5228C35.1109 27.1339 35.489 26.8142 35.5449 26.8121C35.6009 26.8101 35.8766 26.9407 36.1577 27.1024ZM48.6254 33.2422C48.5341 33.3493 48.0939 34.1139 47.6473 34.9411C45.8467 38.2765 44.5173 39.6165 41.1103 41.5302C38.7765 42.8411 38.7362 43.0878 40.6827 44.1527C44.3445 46.1561 45.8417 47.6307 47.6962 51.0606C48.1664 51.93 48.6226 52.7008 48.7101 52.7734C48.9165 52.9447 49.3801 52.9427 49.5888 52.7694C49.6789 52.6947 50.0614 52.0492 50.4389 51.3351C52.3122 47.7905 53.733 46.3293 57.1698 44.4127C59.5269 43.0982 59.5605 42.8548 57.54 41.7358C55.4773 40.5936 54.4753 39.8909 53.4454 38.8643C52.2617 37.6844 51.7103 36.9138 50.606 34.8959C50.1397 34.0437 49.7023 33.2793 49.6339 33.1969C49.4558 32.9821 48.8228 33.0105 48.6254 33.2422ZM31.5439 35.1523C32.8342 35.7497 33.3435 37.3384 32.652 38.6088C31.8485 40.0852 29.8656 40.3593 28.6974 39.1556C27.4946 37.9162 27.8496 35.956 29.4271 35.1259C29.8935 34.8804 30.9861 34.8941 31.5439 35.1523ZM49.7561 36.3167C51.1945 38.9129 53.176 40.9166 55.7204 42.3479C56.9386 43.033 56.9257 42.9124 55.8444 43.5185C54.5752 44.23 53.5715 44.9557 52.636 45.8381C51.4078 46.9967 50.6921 47.9809 49.227 50.5263C49.1644 50.635 48.9267 50.3129 48.4331 49.4505C46.8932 46.7604 44.8088 44.7387 42.134 43.3411C41.7941 43.1635 41.5157 42.9905 41.5155 42.9567C41.5154 42.923 41.7534 42.7807 42.0445 42.6407C43.0022 42.1795 44.7112 40.9727 45.6293 40.1091C46.7189 39.084 47.6305 37.8968 48.4806 36.3954C48.8294 35.7793 49.1293 35.2753 49.147 35.2753C49.1648 35.2753 49.4388 35.7439 49.7561 36.3167ZM14.7106 38.0574C14.5727 38.1132 14.1647 38.7116 13.7091 39.5264C12.6626 41.3985 11.4863 42.5929 9.68313 43.6148C8.30407 44.3963 8.17516 44.5072 8.17516 44.912C8.17516 45.3075 8.33326 45.4556 9.35625 46.0188C11.6736 47.2947 12.6214 48.2605 13.936 50.6851C14.7037 52.1012 15.223 52.2095 15.8264 51.0792C17.1405 48.6179 18.1139 47.508 19.8713 46.4671C21.6115 45.4365 21.7617 45.331 21.823 45.0971C21.9295 44.6897 21.6356 44.3714 20.6252 43.7996C18.2516 42.4565 17.3584 41.5449 16.0583 39.1384C15.7017 38.4786 15.4379 38.1214 15.2559 38.0521C15.1067 37.9954 14.9754 37.9523 14.9641 37.9561C14.9527 37.96 14.8387 38.0056 14.7106 38.0574ZM15.6119 41.1913C16.3354 42.3503 17.4887 43.5131 18.6869 44.2917L19.6452 44.9142L18.762 45.4639C17.601 46.1864 16.2728 47.5174 15.5946 48.6379C15.2978 49.1283 15.0298 49.5299 14.9992 49.5303C14.9685 49.5307 14.6815 49.1137 14.3614 48.6036C13.6272 47.4337 12.5409 46.3372 11.314 45.528L10.3585 44.8978L11.2965 44.2933C12.4221 43.5679 13.7531 42.2151 14.4418 41.0963C14.7153 40.652 14.9651 40.2909 14.9969 40.2937C15.0288 40.2965 15.3056 40.7004 15.6119 41.1913ZM31.1979 44.3863C32.9518 48.1709 34.2841 51.6136 34.4904 52.8945C34.7361 54.4201 34.0803 55.9358 32.7913 56.8215C30.3482 58.5002 27.0354 57.1275 26.4703 54.2026C26.3148 53.3976 26.4154 52.736 26.9283 51.1912C27.5536 49.3081 30.3009 42.9546 30.485 42.9659C30.5159 42.9677 30.8367 43.6069 31.1979 44.3863Z" fill="#AEA896" stroke="#AEA896" stroke-width="0.5"/>
</svg>

<svg width="60" height="60" fill="none" xmlns="http://www.w3.org/2000/svg"><path fill-rule="evenodd" clip-rule="evenodd" d="M8.561 2.08c-.14.057-.34.26-.446.45-1.491 2.715-2.462 3.843-4.153 4.828-1.548.902-1.779 1.065-1.907 1.347-.195.428.09.72 1.47 1.51 1.991 1.14 3.037 2.235 4.22 4.42.866 1.6 1.288 1.612 2.14.062 1.362-2.476 2.369-3.49 4.724-4.755.89-.478 1.059-.652 1.059-1.094 0-.254-.097-.374-.501-.62l-1.518-.916c-1.698-1.023-2.606-2.059-3.932-4.484-.226-.414-.454-.752-.508-.752a1 1 0 01-.245-.049c-.081-.026-.263-.002-.403.054zm21.005-.001a4.11 4.11 0 00-3.064 3.663 3.964 3.964 0 002.702 4.04l.557.189V11.6l-1.08.184c-1.363.233-2.01.443-3.265 1.058-2.926 1.434-5.08 4.084-5.985 7.364-.323 1.174-.355 4.124-.057 5.35.977 4.021 3.869 7.11 7.8 8.33l.978.303-.543.574c-.865.914-1.254 2.364-.96 3.576.141.586.6 1.386 1.051 1.838.441.441 1.406 1.003 1.723 1.003.094 0 .171.056.171.125 0 .068-.371.908-.825 1.866-2.593 5.474-3.775 8.717-3.78 10.375-.006 2.463 1.738 4.642 4.238 5.293 3.296.858 6.737-1.835 6.737-5.273 0-1.108-.389-2.482-1.471-5.2-.593-1.487-2.055-4.74-2.769-6.158-.415-.826-.443-.929-.266-.989 1.232-.418 2.107-1.148 2.582-2.156.248-.525.29-.764.29-1.67 0-1.24-.226-1.829-1.029-2.689l-.48-.515.975-.304c3.854-1.202 6.723-4.194 7.731-8.064.293-1.123.4-3.397.215-4.552-.793-4.954-4.716-8.824-9.642-9.513l-.955-.134.032-.826.033-.826.557-.19c1.263-.428 2.321-1.565 2.621-2.815.437-1.822-.545-3.831-2.255-4.61-.711-.325-1.877-.45-2.567-.276zM31.3 3.532c.544.151 1.278.812 1.54 1.385.117.258.202.703.202 1.058 0 1.46-1.098 2.558-2.558 2.558-1.46 0-2.557-1.098-2.557-2.558 0-1.76 1.616-2.93 3.373-2.443zM9.554 5.36c.678 1.056 1.887 2.252 2.999 2.964.493.317.88.59.862.61-.019.018-.426.29-.905.602-1.138.743-2.337 1.953-3.075 3.103-.325.507-.605.907-.621.889a61.76 61.76 0 01-.702-1.035c-.83-1.237-1.798-2.2-3-2.984l-.918-.6.863-.542c1.133-.713 2.618-2.223 3.257-3.314.41-.697.522-.822.613-.675.061.098.344.54.627.982zm35.784.703c-.23.146-.369.683-.369 1.424v.716h-.883c-.822 0-.9.021-1.114.294-.3.38-.291.548.042.881.242.242.371.274 1.103.274h.829l.04.88c.044.97.247 1.348.725 1.348.519 0 .706-.355.706-1.337v-.891h.867c1.055 0 1.362-.163 1.362-.724 0-.561-.307-.725-1.362-.725h-.867v-.93c0-.758-.037-.963-.203-1.113-.213-.193-.65-.241-.876-.097zm-15.521 8.876v1.833l-.418.075c-1.182.215-2.801 1.11-3.517 1.947-.207.241-.403.439-.437.439-.034 0-.768-.405-1.633-.9l-1.572-.9.363-.506c.392-.547 1.425-1.544 2.143-2.067 1.208-.882 3.455-1.715 4.709-1.746l.362-.009v1.834zm2.715-1.668c2.359.5 4.525 1.875 5.907 3.75l.3.406-1.576.903c-.867.497-1.604.903-1.637.903-.034 0-.23-.198-.437-.44-.716-.835-2.335-1.731-3.517-1.946l-.418-.075v-3.667l.306.002c.169.001.651.075 1.072.164zm-.576 5.17c2.79.96 4.104 3.999 2.853 6.595-.629 1.303-1.589 2.13-2.97 2.556-1.687.521-3.545.026-4.848-1.294-.237-.24-.61-.808-.828-1.262-1.243-2.576.05-5.606 2.81-6.588.784-.28 2.182-.282 2.983-.007zm-8.835 1.135c.864.495 1.571.913 1.571.929 0 .016-.1.421-.223.9-.266 1.04-.282 2.094-.047 3.008l.229.892c.048.188-.188.362-1.534 1.131l-1.59.909-.21-.463c-.116-.255-.333-.939-.482-1.52-.306-1.19-.37-2.933-.152-4.133.11-.609.744-2.553.833-2.553.018 0 .74.405 1.605.9zm16.705.031c.45 1.242.588 2.075.584 3.506-.003 1.253-.312 2.794-.756 3.768l-.21.464-1.59-.909c-1.346-.769-1.582-.943-1.533-1.131.03-.123.134-.524.228-.892.235-.914.218-1.969-.047-3.008-.123-.48-.194-.902-.158-.937.093-.093 2.984-1.77 3.072-1.782.04-.006.225.409.41.921zm13.443-.13c-.35.199-.386.313-.388 1.232l-.002.863h-.717c-.74 0-1.277.14-1.423.37-.152.238-.092.706.116.894.154.14.423.185 1.114.185h.91v.93c0 1.032.162 1.326.73 1.326.513 0 .659-.273.702-1.313l.04-.943h.88c.73 0 .917-.038 1.102-.223.278-.278.284-.57.019-.896-.174-.215-.34-.26-1.103-.305l-.899-.052-.04-.889c-.035-.771-.075-.916-.302-1.1-.3-.242-.426-.256-.739-.079zm-41.55 2.454c-.121.173-.174.51-.174 1.114v.867h-.93c-1.024 0-1.298.145-1.298.688 0 .496.367.7 1.348.744l.88.04v.828c0 .732.033.861.274 1.103.15.15.353.273.45.273.098 0 .3-.123.451-.273.242-.242.274-.371.274-1.103v-.828l.88-.04c.991-.045 1.348-.247 1.348-.764s-.297-.668-1.318-.668h-.91v-.867c0-1.054-.163-1.361-.724-1.361-.264 0-.43.074-.551.247zm14.536 5.59c.8.753 1.793 1.31 2.726 1.528.307.071.62.146.697.166.104.028.139.502.139 1.89v1.852l-.585-.076c-2.492-.321-5.046-1.746-6.486-3.616l-.51-.664 1.089-.634c.599-.35 1.29-.752 1.534-.896.245-.143.49-.26.544-.262.054 0 .437.32.852.711zm9.903-.419l1.544.897 1.033.602-.51.664c-1.44 1.87-3.994 3.295-6.486 3.616l-.585.076v-1.852c0-1.388.035-1.862.14-1.89.076-.02.39-.095.695-.166.942-.22 1.93-.775 2.716-1.526.406-.39.784-.709.84-.71.056-.003.332.128.613.29zm12.467 6.14c-.09.107-.531.872-.978 1.7-1.8 3.334-3.13 4.675-6.537 6.588-2.334 1.311-2.374 1.558-.427 2.623 3.661 2.003 5.159 3.478 7.013 6.908.47.869.927 1.64 1.014 1.712.206.172.67.17.879-.004.09-.074.472-.72.85-1.434 1.873-3.544 3.294-5.006 6.73-6.922 2.358-1.315 2.392-1.558.371-2.677-2.063-1.142-3.065-1.845-4.095-2.872-1.183-1.18-1.735-1.95-2.839-3.968-.466-.852-.904-1.617-.972-1.7-.178-.214-.811-.185-1.009.046zm-17.081 1.91c1.29.598 1.8 2.186 1.108 3.457a2.471 2.471 0 01-3.955.547c-1.202-1.24-.847-3.2.73-4.03.466-.246 1.56-.232 2.117.026zm18.212 1.165c1.438 2.596 3.42 4.6 5.964 6.03 1.219.686 1.206.565.124 1.172-1.269.711-2.273 1.437-3.208 2.32-1.228 1.158-1.944 2.142-3.409 4.687-.063.109-.3-.213-.794-1.076-1.54-2.69-3.624-4.711-6.299-6.109-.34-.178-.618-.35-.618-.384 0-.034.237-.176.529-.316.957-.462 2.666-1.668 3.584-2.532 1.09-1.025 2.002-2.212 2.852-3.714.348-.616.648-1.12.666-1.12.018 0 .292.469.61 1.042zm-35.045 1.74c-.138.056-.546.655-1.002 1.47-1.046 1.871-2.223 3.066-4.026 4.088-1.379.781-1.508.892-1.508 1.297 0 .395.158.544 1.181 1.107 2.318 1.276 3.265 2.242 4.58 4.666.768 1.416 1.287 1.524 1.89.394 1.314-2.461 2.288-3.571 4.045-4.612 1.74-1.03 1.89-1.136 1.952-1.37.107-.407-.187-.726-1.198-1.297-2.373-1.343-3.267-2.255-4.567-4.662-.356-.66-.62-1.017-.802-1.086a1.84 1.84 0 00-.292-.096l-.253.101zm.9 3.134c.724 1.16 1.878 2.322 3.076 3.1l.958.623-.883.55c-1.161.722-2.49 2.053-3.167 3.174-.297.49-.565.892-.596.892-.03 0-.318-.416-.638-.926-.734-1.17-1.82-2.267-3.047-3.076l-.956-.63.938-.605c1.126-.725 2.457-2.078 3.146-3.197.273-.444.523-.805.555-.802.032.003.309.406.615.897zm15.587 3.195c1.754 3.785 3.086 7.228 3.292 8.508a3.982 3.982 0 01-1.699 3.928c-2.443 1.678-5.756.305-6.32-2.62-.156-.804-.056-1.466.457-3.01.626-1.884 3.373-8.237 3.557-8.226.03.002.352.64.713 1.42z" fill="#AEA896" stroke="#AEA896" stroke-width=".5"/></svg>
